X: 14413
T: Galway Girl, The
R: reel
M: 4/4
K: Dmajor
DE|F2E2 D2DE|F2FE FED2|B2BB Bcdc|B2A2 F2FA|
B2BB A2AA|GFED F2FD|E2EE EFGF|E2D2 D2:|
FA|B2BB BBBA|B2c2 d2B2|A2AB AGF2|E2EE EEFA|
B2BB A2AA|GFED F2FD|E2EE EFGF|E2D2 D2:|

